storage/app/icons/phosphoricons/light/number-square-five-light.svg

<svg xmlns="http://www.w3.org/2000/svg" fill="currentColor" viewBox="0 0 256 256"><path d="M208 34H48a14 14 0 0 0-14 14v160a14 14 0 0 0 14 14h160a14 14 0 0 0 14-14V48a14 14 0 0 0-14-14m2 174a2 2 0 0 1-2 2H48a2 2 0 0 1-2-2V48a2 2 0 0 1 2-2h160a2 2 0 0 1 2 2ZM117.08 86l-5 30a36 36 0 0 1 11.92-2 34 34 0 0 1 0 68 33.6 33.6 0 0 1-24.29-9.8 6 6 0 1 1 8.58-8.4A21.65 21.65 0 0 0 124 170a22 22 0 0 0 0-44 21.65 21.65 0 0 0-15.71 6.2 6 6 0 0 1-10.21-5.2l8-48a6 6 0 0 1 5.92-5h40a6 6 0 0 1 0 12Z"/></svg>

<svg xmlns="http://www.w3.org/2000/svg" viewBox="0 0 256 256" fill="currentColor"><path d="M208,34H48A14,14,0,0,0,34,48V208a14,14,0,0,0,14,14H208a14,14,0,0,0,14-14V48A14,14,0,0,0,208,34Zm2,174a2,2,0,0,1-2,2H48a2,2,0,0,1-2-2V48a2,2,0,0,1,2-2H208a2,2,0,0,1,2,2ZM117.08,86l-5,30A36,36,0,0,1,124,114a34,34,0,0,1,0,68,33.6,33.6,0,0,1-24.29-9.8,6,6,0,1,1,8.58-8.4A21.65,21.65,0,0,0,124,170a22,22,0,0,0,0-44,21.65,21.65,0,0,0-15.71,6.2A6,6,0,0,1,98.08,127l8-48A6,6,0,0,1,112,74h40a6,6,0,0,1,0,12Z"/></svg>
